X: 2
T: Bruise The Pease
M: 6/8
L: 1/8
R: jig
K: Ddor
|: DAG F3 | A2 G F3 | DAG F2 G | A2 G AFD |
A2 G F3 | A2 G F2 E | DED c2 A | d2 A GED :|
|: A2 d d3 | edc d3 | A2 d d2 e | f2 d ecA |
[1 A2 B c3 | BdB c3 | A2 B c2 d | e2 d cAG :|
[2 d2 B c2 A | (4AcAG F2 E | DED c2 A | d2 A GED |]
